core/assets/icons/character.cat.outline.svg

<svg width="24" height="24" viewBox="0 0 24 24" xmlns="http://www.w3.org/2000/svg"><g id="character=cat, state=outline"><g id="Vector"><path d="M15.1497 7.08063H8.85126L2.50049 2V16.5806C2.50122 19.3424 4.73877 21.5799 7.50049 21.5806H16.5005C19.2622 21.5799 21.4998 19.3424 21.5005 16.5806V2L15.1497 7.08063ZM19.5005 16.5806C19.4975 18.2368 18.1567 19.5776 16.5005 19.5806H7.50049C5.84424 19.5776 4.50348 18.2368 4.50049 16.5806V6.16126L8.14966 9.08063H15.8513L19.5005 6.16126V16.5806Z"/><path d="M8.00049 14.0806C8.82892 14.0806 9.50049 13.4091 9.50049 12.5806C9.50049 11.7522 8.82892 11.0806 8.00049 11.0806C7.17206 11.0806 6.50049 11.7522 6.50049 12.5806C6.50049 13.4091 7.17206 14.0806 8.00049 14.0806Z"/><path d="M16.0005 14.0806C16.8289 14.0806 17.5005 13.4091 17.5005 12.5806C17.5005 11.7522 16.8289 11.0806 16.0005 11.0806C15.1721 11.0806 14.5005 11.7522 14.5005 12.5806C14.5005 13.4091 15.1721 14.0806 16.0005 14.0806Z"/></g></g></svg>

<svg xmlns="http://www.w3.org/2000/svg" width="24" height="24" fill="none"><g fill="#191C22"><path d="M15.15 7.08H8.85L2.501 2v14.58a5 5 0 0 0 5 5h9a5 5 0 0 0 5-5V2L15.15 7.08Zm4.35 9.5a3.005 3.005 0 0 1-3 3h-9a3.005 3.005 0 0 1-3-3V6.162l3.65 2.92h7.701l3.65-2.92v10.42Z"/><path d="M8 14.08a1.5 1.5 0 1 0 0-3 1.5 1.5 0 0 0 0 3ZM16 14.08a1.5 1.5 0 1 0 0-3 1.5 1.5 0 0 0 0 3Z"/></g></svg>
